X:1
T:Little Red Bird
B:Singing Together, Spring 1978, BBC Publications
F:http://www.folkinfo.org/songs
M:3/4     %Meter
L:1/8     %
K:Bb
D2 G2 G2 |G4 G2 |d4 d2 |A6 |
w:Lit-tle red bird on lone-ly moor,
B4 B2 |G6 |A4 A2 |F6 |
w:lone-ly moor, lone-ly moor,
D2 G2 G2 |G4 G2 |d4 d2 |A4
w:Lit-tle red bird on lone-ly moor,
A2 |B2 B2 B2 |(A2 G2) F2 |G6-|G6 |
w:O where did you sleep_ last night? *
D2 G2 G2 |G4 G2 |d4 d2 |A6 |
w:Out on a gorse-bush dark and wide,
B4 B2 |A6 |A4 A2 |F6 |
w:dark and wide, dark and wide,
(D2 G2) G2 |G2 G2 G2 |d4 d2 |A4
w:Rain_ kept fall-ing on ev'-ry side,
A2 |B2 B2 B2 |(A2 G2) F2 |G6-|G6 |]
w:O hard was my sleep_ last night. *
